X: 1
T: Hommage \`a Rock Proulx
C: Marcel Messervier 1981
R: reel
Z: 2015 John Chambers <jc:trillian.mit.edu>
B: "Joy of Sets" from Paul Lizotte
M: C|
L: 1/8
K: G
|:\
"G"g3e  dBGA | BGFG E2D2 | g3f e2de | "D"fgab "D7"afdf | "G"g2e2 dBGA |
"G"BGFG EDEF | "G"GFGA B2AG |[1 "D7"FDEF "G"G4 :|[2 "D7"FADF "G"G2"D7"A2 ||
|:\
"G"B4- BABc | B2A2 GFGB | "Em"e2d2- dBde | d2B2 A2G2 |
"Am"F3F FDFA | "D7"d2c2 B2A2 |[1 "G"GBDG B2e2 | "D7"d3B G2A2 :|\
[2 "G"GBDG "D7"B2A2 | "G"G4 HGdef |]
%%text Extra beat in the last bar of the 1st strain deleted to get 32 bars.
